X:66    
T:Reel
O:Qu\'ebec
R:reel
M:4/4    
L:1/8    
K:D
G GG | gG GG fG GG | eG GG dB AG | FF AF DF AF |GA Bc dG GG|
gG GG fG GG | eG GG dB AG | FF AF DF AF|1 GB AF G :|
[2GB AF G2 |: AG | FA dA B2 Ad | fd ad fa df |
ed ce ae ce | de fd B2 AG |  FA dA B2 Ad | fd ad fa df |
ed ce ae ce |1 df ec d2 :|2 df ec d |
